X:1
T:Hanſen Library
M:C|
L:1/8
C:T. S. Macdonald
K:G
G2 B>G B<dd>B | c>Bd>c B>GF<D | G2 B>G B<dd>B | c>A d/e/d/c/ B<G G2 :|]
g2 b>g f2 a>f | e>de<f g>dB<G | g2 b>g f>ga<f | c>A d/e/d/c/ B<G G2 |\
g2 b>g f2 a>f | e>de<f g>dB<G | g<be<g d<gB<G | c>A d/c/B/A/ B<G G2 |]

